X:456
T:Farewell to Fuinary
S:Many
Z:Nigel Gatherer
M:6/8
L:1/8
K:G
G | G2G d2B | A2G F2A | B2E E2F | E2D D2D |
    E2E G2G | A2B D2D | E2E D2B | A2G G2 :|
